src/img/icons/linked-in.svg

<svg width="24" height="24" viewBox="0 0 24 24" fill="none" xmlns="http://www.w3.org/2000/svg">
<path d="M21.995 22L22 21.9992V14.6642C22 11.0758 21.2275 8.31167 17.0325 8.31167C15.0158 8.31167 13.6625 9.41833 13.11 10.4675H13.0517V8.64667H9.07416V21.9992H13.2158V15.3875C13.2158 13.6467 13.5458 11.9633 15.7017 11.9633C17.8258 11.9633 17.8575 13.95 17.8575 15.4992V22H21.995Z" fill="#1F2036"/>
<path d="M2.32999 8.6475H6.47666V22H2.32999V8.6475Z" fill="#1F2036"/>
<path d="M4.40167 2C3.07583 2 2 3.07583 2 4.40167C2 5.7275 3.07583 6.82583 4.40167 6.82583C5.7275 6.82583 6.80333 5.7275 6.80333 4.40167C6.8025 3.07583 5.72667 2 4.40167 2Z" fill="#1F2036"/>
</svg>

<svg xmlns="http://www.w3.org/2000/svg" fill="none" viewBox="0 0 24 24"><path fill="#1F2036" d="M21.995 22H22v-7.336c0-3.588-.773-6.352-4.968-6.352-2.016 0-3.37 1.106-3.922 2.155h-.058v-1.82H9.074v13.352h4.142v-6.611c0-1.741.33-3.425 2.486-3.425 2.124 0 2.156 1.987 2.156 3.536V22h4.137zM2.33 8.648h4.147V22H2.33V8.648zM4.402 2A2.402 2.402 0 0 0 2 4.402c0 1.325 1.076 2.424 2.402 2.424 1.325 0 2.401-1.098 2.401-2.424A2.403 2.403 0 0 0 4.402 2z"/></svg>
